!!!SOCIAL_FUNCTION:	songs of war
!!!PDT:	1913
!!!OTL: No_31_If_I_Had_Been_a_Man.krn
!!!REG: Great_Lakes
!!!LANG: Non-Tone
!!!LING_GROUP: Algonquin
**kern	**kern
*staff2	*staff1
=1-	=1-
*clefF4	*clefF4
*k[b-e-]	*k[b-e-]
*M2/4	*M2/4
8GG/L	8F\L
8GG/J	8f\J
8GG/L	8.f\L
8GG/J	.
.	16f\Jk
=2	=2
8GG/L	8f\L
8GG/J	24d\K
.	12B-\J
8GG/L	(8B-\L
8GG/J	16.G\L)
.	32B-\JJk
=3	=3
2r	8B-\L
.	16B-\L
.	16B-\JJ
.	12B-\L
.	12B-\
.	12B-\J
=4	=4
2r	8.B-\L
.	16B-\Jk
.	12B-\L
.	12B-\
.	12B-\J
=5	=5
2r	8d\L
.	8d\J
.	8d\L
.	16.f\L
.	32d\JJk
=6	=6
2r	4c\
.	16d\LL
.	16B-\
.	16B-\
.	16G\JJ
=7	=7
2r	16.B-\LL
.	32c\K
.	16B-\
.	16G\JJ
.	12F\L
.	12F\
.	12F\J
=8	=8
2r	8B-\L
.	8B-\J
.	16.B-\LL
.	32c\K
.	16B-\
.	16G\JJ
=9||	=9||
*M3/4	*M3/4
2.r	12F\L
.	12F\
.	12D\J
.	12F\L
.	12F\
.	12D\J
.	12F\L
.	12F\
.	12D\J
=10	=10
2.r	2.BB-/
==	==
*-	*-
